public/images/sponsors/Google.svg

<svg fill="none" height="86" viewBox="0 0 172 86" width="172" xmlns="http://www.w3.org/2000/svg" xmlns:xlink="http://www.w3.org/1999/xlink"><clipPath id="a"><path d="m18 20h137v46h-137z"/></clipPath><g clip-path="url(#a)"><path d="m76.7325 44.1143c0 6.5269-5.069 11.3364-11.2899 11.3364-6.2208 0-11.2898-4.8095-11.2898-11.3364 0-6.5729 5.069-11.3365 11.2898-11.3365 6.2209 0 11.2899 4.7636 11.2899 11.3365zm-4.9422 0c0-4.0787-2.9379-6.8694-6.3477-6.8694-3.4097 0-6.3476 2.7907-6.3476 6.8694 0 4.0378 2.9379 6.8693 6.3476 6.8693 3.4098 0 6.3477-2.8367 6.3477-6.8693z" fill="#ea4335"/><path d="m101.088 44.1143c0 6.5269-5.0691 11.3364-11.2899 11.3364s-11.2898-4.8095-11.2898-11.3364c0-6.5678 5.069-11.3365 11.2898-11.3365s11.2899 4.7636 11.2899 11.3365zm-4.9422 0c0-4.0787-2.9379-6.8694-6.3477-6.8694s-6.3476 2.7907-6.3476 6.8694c0 4.0378 2.9378 6.8693 6.3476 6.8693s6.3477-2.8367 6.3477-6.8693z" fill="#fbbc05"/><path d="m124.428 33.4627v20.3525c0 8.372-4.901 11.7913-10.696 11.7913-5.454 0-8.737-3.6749-9.975-6.6802l4.303-1.8042c.766 1.8451 2.643 4.0224 5.667 4.0224 3.709 0 6.008-2.3051 6.008-6.6444v-1.6305h-.173c-1.106 1.3749-3.237 2.576-5.926 2.576-5.627 0-10.782-4.9373-10.782-11.2904 0-6.3991 5.155-11.3774 10.782-11.3774 2.684 0 4.815 1.2011 5.926 2.5351h.173v-1.8451h4.693zm-4.343 10.6925c0-3.9918-2.644-6.9103-6.008-6.9103-3.409 0-6.266 2.9185-6.266 6.9103 0 3.9509 2.857 6.8284 6.266 6.8284 3.364 0 6.008-2.8775 6.008-6.8284z" fill="#4285f4"/><path d="m132.167 21.5334v33.2223h-4.821v-33.2223z" fill="#34a853"/><path d="m150.951 47.8454 3.836 2.576c-1.238 1.8451-4.222 5.0242-9.377 5.0242-6.393 0-11.168-4.9782-11.168-11.3365 0-6.7415 4.815-11.3364 10.615-11.3364 5.84 0 8.697 4.6818 9.631 7.2118l.512 1.288-15.044 6.2764c1.151 2.2745 2.943 3.4347 5.454 3.4347 2.517 0 4.262-1.2471 5.541-3.1382zm-11.807-4.0787 10.057-4.2064c-.554-1.4158-2.218-2.4023-4.176-2.4023-2.512 0-6.008 2.2336-5.881 6.6087z" fill="#ea4335"/><path d="m35.9064 41.1651v-4.8095h16.0898c.1573.8382.2385 1.8297.2385 2.9031 0 3.6084-.9793 8.0704-4.1353 11.2495-3.0699 3.22-6.9921 4.9374-12.188 4.9374-9.6306 0-17.7288-7.9018-17.7288-17.6027s8.0982-17.6027 17.7288-17.6027c5.3278 0 9.1232 2.1058 11.9748 4.8505l-3.3691 3.3938c-2.0449-1.932-4.8153-3.4347-8.6107-3.4347-7.0327 0-12.533 5.7091-12.533 12.7931s5.5003 12.7931 12.533 12.7931c4.5616 0 7.1595-1.8451 8.8238-3.5215 1.3497-1.3596 2.2376-3.3018 2.5878-5.9545z" fill="#4285f4"/></g></svg>

<svg width="172" height="86" viewBox="0 0 172 86" fill="none" xmlns="http://www.w3.org/2000/svg">
<g clip-path="url(#clip0)">
<path d="M76.7325 44.1143C76.7325 50.6412 71.6635 55.4507 65.4426 55.4507C59.2218 55.4507 54.1528 50.6412 54.1528 44.1143C54.1528 37.5414 59.2218 32.7778 65.4426 32.7778C71.6635 32.7778 76.7325 37.5414 76.7325 44.1143ZM71.7903 44.1143C71.7903 40.0356 68.8524 37.2449 65.4426 37.2449C62.0329 37.2449 59.095 40.0356 59.095 44.1143C59.095 48.1521 62.0329 50.9836 65.4426 50.9836C68.8524 50.9836 71.7903 48.1469 71.7903 44.1143Z" fill="#EA4335"/>
<path d="M101.088 44.1143C101.088 50.6412 96.0189 55.4507 89.7981 55.4507C83.5773 55.4507 78.5083 50.6412 78.5083 44.1143C78.5083 37.5465 83.5773 32.7778 89.7981 32.7778C96.0189 32.7778 101.088 37.5414 101.088 44.1143ZM96.1458 44.1143C96.1458 40.0356 93.2079 37.2449 89.7981 37.2449C86.3883 37.2449 83.4505 40.0356 83.4505 44.1143C83.4505 48.1521 86.3883 50.9836 89.7981 50.9836C93.2079 50.9836 96.1458 48.1469 96.1458 44.1143Z" fill="#FBBC05"/>
<path d="M124.428 33.4627V53.8152C124.428 62.1872 119.527 65.6065 113.732 65.6065C108.278 65.6065 104.995 61.9316 103.757 58.9263L108.06 57.1221C108.826 58.9672 110.703 61.1445 113.727 61.1445C117.436 61.1445 119.735 58.8394 119.735 54.5001V52.8696H119.562C118.456 54.2445 116.325 55.4456 113.636 55.4456C108.009 55.4456 102.854 50.5083 102.854 44.1552C102.854 37.7561 108.009 32.7778 113.636 32.7778C116.32 32.7778 118.451 33.9789 119.562 35.3129H119.735V33.4678H124.428V33.4627ZM120.085 44.1552C120.085 40.1634 117.441 37.2449 114.077 37.2449C110.668 37.2449 107.811 40.1634 107.811 44.1552C107.811 48.1061 110.668 50.9836 114.077 50.9836C117.441 50.9836 120.085 48.1061 120.085 44.1552Z" fill="#4285F4"/>
<path d="M132.167 21.5334V54.7557H127.346V21.5334H132.167Z" fill="#34A853"/>
<path d="M150.951 47.8454L154.787 50.4214C153.549 52.2665 150.565 55.4456 145.41 55.4456C139.017 55.4456 134.242 50.4674 134.242 44.1091C134.242 37.3676 139.057 32.7727 144.857 32.7727C150.697 32.7727 153.554 37.4545 154.488 39.9845L155 41.2725L139.956 47.5489C141.107 49.8234 142.899 50.9836 145.41 50.9836C147.927 50.9836 149.672 49.7365 150.951 47.8454ZM139.144 43.7667L149.201 39.5603C148.647 38.1445 146.983 37.158 145.025 37.158C142.513 37.158 139.017 39.3916 139.144 43.7667Z" fill="#EA4335"/>
<path d="M35.9064 41.1651V36.3556H51.9962C52.1535 37.1938 52.2347 38.1853 52.2347 39.2587C52.2347 42.8671 51.2554 47.3291 48.0994 50.5082C45.0295 53.7282 41.1073 55.4456 35.9114 55.4456C26.2808 55.4456 18.1826 47.5438 18.1826 37.8429C18.1826 28.142 26.2808 20.2402 35.9114 20.2402C41.2392 20.2402 45.0346 22.346 47.8862 25.0907L44.5171 28.4845C42.4722 26.5525 39.7018 25.0498 35.9064 25.0498C28.8737 25.0498 23.3734 30.7589 23.3734 37.8429C23.3734 44.9269 28.8737 50.636 35.9064 50.636C40.468 50.636 43.0659 48.7909 44.7302 47.1145C46.0799 45.7549 46.9678 43.8127 47.318 41.16L35.9064 41.1651Z" fill="#4285F4"/>
</g>
<defs>
<clipPath id="clip0">
<rect width="137" height="46" fill="white" transform="translate(18 20)"/>
</clipPath>
</defs>
</svg>
